X:1
T:Title
%%score 1 { ( 2 4 ) | ( 3 5 ) }
L:1/8
Q:1/4=106
M:3/4
K:Bb
V:1 treble nm="Akkordion"
V:2 treble nm="Grand Piano"
V:4 treble 
V:3 bass 
V:5 bass 
V:1
 z6 | z6 | z6 | z6 | z6 | z6 | z6 | z6 | d2 c2 B2 | A>B c4 | G>A B2 c2 | A6 | e2 d2 c2 | c>B A4 | %14
 c>B G2 A2 | F6 | z6 | z6 | z6 | z6 | z6 | z6 | %22
 z6[Q:1/4=104][Q:1/4=102][Q:1/4=99][Q:1/4=97][Q:1/4=95][Q:1/4=93][Q:1/4=91][Q:1/4=88][Q:1/4=86][Q:1/4=84][Q:1/4=82] | %23
 z6 |] %24
V:2
 [DF]2 [B,D]2 [CE]2 | [DF]>[_D=E] [=DF]4 | [DB]>[Ec] [DB]2 [FA]2 | [EG]6 | [Gc]2 [GB]2 [EG]2 | %5
w: Chas.~Edw.~Prior * *|||||
 [EG]>[DF] [DF]4 | A>A B2 c2 | [Fd]6 | B,,2 D2 D2 | F,,2[K:treble] A2 A2 | C,2 =E2 E2 | %11
w: ||||||
 F,2[K:treble] F2 A2 | F,2 A2 A2 | F,2 A2 F2 | C,2 [B,C=E]2 [B,CE]2 | [F,F]2- [F,-DF-]2 [F,EF]2 | %16
w: |||||
 [Fd]2 [Ec]2 [DB]2 | [DF]>[B,D] [DF]4 | [EG]>[FA] [FB]2 [Fd]2 | c6 | ce dA B[FA] | [Gc]>[GB] G4 | %22
w: ||||||
 F>d d2 c2 | [DB]6 |] %24
w: ||
V:3
 [B,,B,]2 [B,,F,]2 [B,,F,]2 | [B,,B,]>[B,,B,] [B,,B,]4 | [B,,F,]>[B,,F,] [B,,F,]2 [D,B,]2 | %3
 [E,B,]6 | [E,E]2 [E,E]2 [E,B,]2 | [B,,B,]>[B,,B,] [B,,B,]4 | [F,CF]>[F,CF] [F,DF]2 [F,A,F]2 | %7
 [B,,B,]6 | B,,,2 [F,B,]2 [F,B,]2 | z2[K:treble] [CF]2 [CF]2 | C,,2 [G,B,C]2 [G,B,C]2 | %11
 F,,2 [A,C]2 [CEF]2 | F,,2[K:treble] [CEF]2 [CEF]2 | F,,2 [CF]2 [A,C]2 | C,,2 G,2 G,2 | z2 B,2 C2 | %16
 [B,,B,]2 [B,,F,]2 [B,,F,]2 | [B,,B,]>[B,,F,] [B,,B,]4 | [E,B,]>[E,C] [D,B,]2 [B,,B,]2 | [F,A,F]6 | %20
 [F,F]-[F,CF] [B,F][A,E] [G,D]D, | [E,E]>[E,E] [E,B,E]4 | [F,B,D]>[F,B,F] [F,G,F]2 [F,A,E]2 | %23
 [B,,B,]6 |] %24
V:4
 x6 | x6 | x6 | x6 | x6 | x6 | x6 | x6 | x6 | x2[K:treble] x4 | x6 | x2[K:treble] x4 | x6 | x6 | %14
 x6 | [A,C]2 z2 z2 | x6 | x6 | x6 | x6 | x6 | x6 | x6 | x6 |] %24
V:5
 x6 | x6 | x6 | x6 | x6 | x6 | x6 | x6 | x6 | x2[K:treble] x4 | x6 | x6 | x2[K:treble] x4 | x6 | %14
 x6 | F,,6 | x6 | x6 | x6 | x6 | .A,2 F,2 B,2 | x6 | x6 | x6 |] %24

